X:1
T:Title
%%score { 1 | ( 2 3 ) }
L:1/8
M:6/4
K:Ab
V:1 treble nm="Grand Piano"
V:2 bass 
V:3 bass 
V:1
 z6 z4[Q:1/4=123] [Ec]2 | [Ec]4 [Ec]2 .[FB]4 [A,DF]2 | [A,CE]4 [A,_C=D]2 [A,=CE]4 [CEA]2 | A6 G6 | %4
[M:5/4] B2- B2- B6 |[M:1/4] d2 |[M:6/4] d4 d2 d2 c2 [EB]2 | [EA]4 B2 c4 e2 | e4 e2 e2 d2 c2 | %9
[M:7/4] B4 [_Gc]2 [Fd]6 F2 |[M:6/4] A6 B6 | [CA]6- [CA]4 [CE]2 | [DF]6 [DE]6 | %13
[M:5/4] [CE]2- [CE]2- [CE]6 |] %14
V:2
 z6 z4 [A,,A,]2 | [A,,A,]4 [A,,A,]2 z2 A2 D,2 | A,,4 A,,2 A,,4 A,,2 | [E,CE]6 [E,B,E]6 | %4
[M:5/4] [E,G,E]2- [E,G,E]2- [E,G,E]6 |[M:1/4] [E,B,E]2 |[M:6/4] z6 .B,6 | %7
 [C,A,]4 [E,G,E]2[K:treble] [A,E]4 [A,CA]2 | [A,CA]4 [A,CA]2 [A,E]2- [A,B,E]2[K:bass] [A,E]2 | %9
[M:7/4] [E,G,E]4 [A,,A,]2 [D,A,]6 [D,A,D]2 |[M:6/4] [E,A,C]6 [E,G,D]6 | %11
 [A,,A,]6- [A,,A,]4 [A,,A,]2 | [D,A,]6 [E,G,]6 |[M:5/4] [A,,A,]2- [A,,A,]2- [A,,A,]6 |] %14
V:3
 x12 | z6 .[D,A,]6 | x12 | x12 |[M:5/4] x10 |[M:1/4] x2 | %6
[M:6/4] [D,B,E]4 [E,B,E]2 [E,E]2- [E,A,E]2 [D,G,]2 | x6[K:treble] x6 | z6 .C6[K:bass] | %9
[M:7/4] x14 |[M:6/4] x12 | x12 | x12 |[M:5/4] x10 |] %14

